Numix/16/status/indicator-keyboard-Ro-1.svg

<?xml version="1.0" encoding="UTF-8" standalone="no"?>
<svg
   xmlns:dc="http://purl.org/dc/elements/1.1/"
   xmlns:cc="http://creativecommons.org/ns#"
   xmlns:rdf="http://www.w3.org/1999/02/22-rdf-syntax-ns#"
   xmlns:svg="http://www.w3.org/2000/svg"
   xmlns="http://www.w3.org/2000/svg"
   xmlns:sodipodi="http://sodipodi.sourceforge.net/DTD/sodipodi-0.dtd"
   xmlns:inkscape="http://www.inkscape.org/namespaces/inkscape"
   viewBox="0 0 16 16"
   id="svg2"
   version="1.1"
   inkscape:version="0.91 r13725"
   sodipodi:docname="indicator-keyboard-Ro-1.svg">
  <metadata
     id="metadata14">
    <rdf:RDF>
      <cc:Work
         rdf:about="">
        <dc:format>image/svg+xml</dc:format>
        <dc:type
           rdf:resource="http://purl.org/dc/dcmitype/StillImage" />
      </cc:Work>
    </rdf:RDF>
  </metadata>
  <defs
     id="defs12" />
  <sodipodi:namedview
     pagecolor="#ffffff"
     bordercolor="#666666"
     borderopacity="1"
     objecttolerance="10"
     gridtolerance="10"
     guidetolerance="10"
     inkscape:pageopacity="0"
     inkscape:pageshadow="2"
     inkscape:window-width="640"
     inkscape:window-height="480"
     id="namedview10"
     showgrid="false"
     inkscape:zoom="14.75"
     inkscape:cx="8"
     inkscape:cy="8"
     inkscape:window-x="65"
     inkscape:window-y="24"
     inkscape:window-maximized="0"
     inkscape:current-layer="svg2" />
  <path
     style="fill:#ececec;fill-opacity:1"
     d="M 1.5996094 0 C 0.71320937 2.9605947e-16 0 0.71320937 0 1.5996094 L 0 14.400391 C 2.9605947e-16 15.286791 0.71320937 16 1.5996094 16 L 14.400391 16 C 15.286791 16 16 15.286791 16 14.400391 L 16 1.5996094 C 16 0.71320937 15.286791 0 14.400391 0 L 1.5996094 0 z M 3.5410156 4.8046875 C 4.3990156 4.8046875 5.0445625 4.9670156 5.4765625 5.2910156 C 5.9145625 5.6150156 6.1347656 6.0944688 6.1347656 6.7304688 C 6.1347656 7.1984687 6.011625 7.5678906 5.765625 7.8378906 C 5.519625 8.1078906 5.1949688 8.3038281 4.7929688 8.4238281 C 4.8889687 8.5438281 5.0121094 8.7042031 5.1621094 8.9082031 C 5.3181094 9.1122031 5.4766719 9.3379844 5.6386719 9.5839844 C 5.8006719 9.8239844 5.9592344 10.075844 6.1152344 10.339844 C 6.2712344 10.603844 6.4037187 10.855703 6.5117188 11.095703 L 5.8554688 11.095703 C 5.7294688 10.855703 5.5914063 10.616953 5.4414062 10.376953 C 5.2974063 10.136953 5.1462344 9.9055939 4.9902344 9.6835938 C 4.8402344 9.4555937 4.6947813 9.2447344 4.5507812 9.0527344 L 4.171875 8.5488281 C 3.979875 8.5668281 3.7877031 8.5761719 3.5957031 8.5761719 L 2.5878906 8.5761719 L 2.5878906 11.095703 L 1.9765625 11.095703 L 1.9765625 4.9765625 C 2.1925625 4.9165625 2.4444219 4.8736094 2.7324219 4.8496094 C 3.0264219 4.8196094 3.2950156 4.8046875 3.5410156 4.8046875 z M 3.6132812 5.3359375 C 3.3852813 5.3359375 3.1857187 5.3452813 3.0117188 5.3632812 C 2.8437188 5.3752812 2.7018906 5.3864375 2.5878906 5.3984375 L 2.5878906 8.0546875 L 3.4335938 8.0546875 C 3.7155937 8.0546875 3.982375 8.0415781 4.234375 8.0175781 C 4.486375 7.9875781 4.7065781 7.9278906 4.8925781 7.8378906 C 5.0785781 7.7418906 5.2240313 7.6075937 5.3320312 7.4335938 C 5.4400313 7.2595937 5.4941406 7.0226562 5.4941406 6.7226562 C 5.4941406 6.4466563 5.4400313 6.2171094 5.3320312 6.0371094 C 5.2240312 5.8571094 5.0841563 5.7172344 4.9101562 5.6152344 C 4.7361562 5.5072344 4.5346406 5.4344375 4.3066406 5.3984375 C 4.0846406 5.3564375 3.8532813 5.3359375 3.6132812 5.3359375 z M 9.3398438 6.3359375 C 9.6518437 6.3359375 9.9373124 6.395625 10.195312 6.515625 C 10.453313 6.629625 10.675328 6.7937656 10.861328 7.0097656 C 11.053328 7.2197656 11.198781 7.4753906 11.300781 7.7753906 C 11.408781 8.0753906 11.462891 8.4074375 11.462891 8.7734375 C 11.462891 9.1394375 11.408781 9.4734375 11.300781 9.7734375 C 11.198781 10.073438 11.053328 10.327109 10.861328 10.537109 C 10.675328 10.747109 10.453313 10.913203 10.195312 11.033203 C 9.9373124 11.147203 9.6518437 11.203125 9.3398438 11.203125 C 9.0278438 11.203125 8.742375 11.147203 8.484375 11.033203 C 8.226375 10.913203 8.0025469 10.747109 7.8105469 10.537109 C 7.6245469 10.327109 7.4771406 10.073438 7.3691406 9.7734375 C 7.2671406 9.4734375 7.2148437 9.1394375 7.2148438 8.7734375 C 7.2148438 8.4074375 7.2671406 8.0753906 7.3691406 7.7753906 C 7.4771406 7.4753906 7.6245469 7.2197656 7.8105469 7.0097656 C 8.0025469 6.7937656 8.226375 6.629625 8.484375 6.515625 C 8.742375 6.395625 9.0278438 6.3359375 9.3398438 6.3359375 z M 9.3398438 6.8652344 C 8.8778438 6.8652344 8.5121875 7.0406719 8.2421875 7.3886719 C 7.9721875 7.7306719 7.8359375 8.1914375 7.8359375 8.7734375 C 7.8359375 9.3554375 7.9721875 9.818156 8.2421875 10.160156 C 8.5121875 10.502156 8.8778437 10.673828 9.3398438 10.673828 C 9.8018438 10.673828 10.1675 10.502156 10.4375 10.160156 C 10.7075 9.8181561 10.841797 9.3554375 10.841797 8.7734375 C 10.841797 8.1914375 10.7075 7.7306719 10.4375 7.3886719 C 10.1675 7.0406719 9.8018438 6.8652344 9.3398438 6.8652344 z M 13.755859 8.8417969 L 14.023438 8.8417969 L 14.023438 12.896484 L 13.644531 12.896484 L 13.644531 9.421875 C 13.601631 9.468675 13.544809 9.5157063 13.474609 9.5664062 C 13.408309 9.6171063 13.331894 9.66805 13.246094 9.71875 C 13.160294 9.76555 13.070163 9.812575 12.976562 9.859375 C 12.882962 9.902275 12.788913 9.9375437 12.695312 9.9648438 L 12.583984 9.671875 C 12.817984 9.5899751 13.027638 9.4880813 13.210938 9.3632812 C 13.394237 9.2345813 13.576459 9.0601969 13.755859 8.8417969 z "
     id="path4" />
</svg>

<svg xmlns="http://www.w3.org/2000/svg" viewBox="0 0 16 16">
 <path d="m 1.6 0 c -0.886 0 -1.6 0.713 -1.6 1.6 l 0 12.801 c 0 0.886 0.713 1.6 1.6 1.6 l 12.801 0 c 0.886 0 1.6 -0.713 1.6 -1.6 l 0 -12.801 c 0 -0.886 -0.713 -1.6 -1.6 -1.6 l -12.801 0 z m 1.941 4.805 c 0.858 0 1.504 0.162 1.936 0.486 c 0.438 0.324 0.658 0.803 0.658 1.439 c 0 0.468 -0.123 0.837 -0.369 1.107 c -0.246 0.27 -0.571 0.466 -0.973 0.586 c 0.096 0.12 0.219 0.28 0.369 0.484 c 0.156 0.204 0.315 0.43 0.477 0.676 c 0.162 0.24 0.321 0.492 0.477 0.756 c 0.156 0.264 0.288 0.516 0.396 0.756 l -0.656 0 c -0.126 -0.24 -0.264 -0.479 -0.414 -0.719 c -0.144 -0.24 -0.295 -0.471 -0.451 -0.693 c -0.15 -0.228 -0.295 -0.439 -0.439 -0.631 l -0.379 -0.504 c -0.192 0.018 -0.384 0.027 -0.576 0.027 l -1.01 0 l 0 2.52 l -0.611 0 l 0 -6.119 c 0.216 -0.06 0.468 -0.103 0.756 -0.127 c 0.294 -0.03 0.563 -0.045 0.809 -0.045 z m 0.072 0.531 c -0.228 0 -0.428 0.009 -0.602 0.027 c -0.168 0.012 -0.31 0.023 -0.424 0.035 l 0 2.656 l 0.846 0 c 0.282 0 0.549 -0.013 0.801 -0.037 c 0.252 -0.03 0.472 -0.09 0.658 -0.18 c 0.186 -0.096 0.331 -0.23 0.439 -0.404 c 0.108 -0.174 0.162 -0.411 0.162 -0.711 c 0 -0.276 -0.054 -0.506 -0.162 -0.686 c -0.108 -0.18 -0.248 -0.32 -0.422 -0.422 c -0.174 -0.108 -0.376 -0.181 -0.604 -0.217 c -0.222 -0.042 -0.453 -0.063 -0.693 -0.063 z m 5.727 1 c 0.312 0 0.597 0.06 0.855 0.18 c 0.258 0.114 0.48 0.278 0.666 0.494 c 0.192 0.21 0.337 0.466 0.439 0.766 c 0.108 0.3 0.162 0.632 0.162 0.998 c 0 0.366 -0.054 0.7 -0.162 1 c -0.102 0.3 -0.247 0.554 -0.439 0.764 c -0.186 0.21 -0.408 0.376 -0.666 0.496 c -0.258 0.114 -0.543 0.17 -0.855 0.17 c -0.312 0 -0.597 -0.056 -0.855 -0.17 c -0.258 -0.12 -0.482 -0.286 -0.674 -0.496 c -0.186 -0.21 -0.333 -0.464 -0.441 -0.764 c -0.102 -0.3 -0.154 -0.634 -0.154 -1 c 0 -0.366 0.052 -0.698 0.154 -0.998 c 0.108 -0.3 0.255 -0.556 0.441 -0.766 c 0.192 -0.216 0.416 -0.38 0.674 -0.494 c 0.258 -0.12 0.543 -0.18 0.855 -0.18 z m 0 0.529 c -0.462 0 -0.828 0.175 -1.098 0.523 c -0.27 0.342 -0.406 0.803 -0.406 1.385 c 0 0.582 0.136 1.045 0.406 1.387 c 0.27 0.342 0.636 0.514 1.098 0.514 c 0.462 0 0.828 -0.172 1.098 -0.514 c 0.27 -0.342 0.404 -0.805 0.404 -1.387 c 0 -0.582 -0.134 -1.043 -0.404 -1.385 c -0.27 -0.348 -0.636 -0.523 -1.098 -0.523 z m 4.416 1.977 l 0.268 0 l 0 4.055 l -0.379 0 l 0 -3.475 c -0.043 0.047 -0.1 0.094 -0.17 0.145 c -0.066 0.051 -0.143 0.102 -0.229 0.152 c -0.086 0.047 -0.176 0.094 -0.27 0.141 c -0.094 0.043 -0.188 0.078 -0.281 0.105 l -0.111 -0.293 c 0.234 -0.082 0.444 -0.184 0.627 -0.309 c 0.183 -0.129 0.366 -0.303 0.545 -0.521 z" style="fill:#ececec;fill-opacity:1"/>
</svg>
